X:414
T: Yi xi yishang er wang lang
N: C1449
O: China,Hubei, Jinmen
S: I, 440]
R: Shange, Tiange, Checaoge]
M: 2/4
L: 1/16
K: A
B4e2c2 | B4A2F2 | A4A2B2 | F2E2E4 |
A2F2A2B2 | F2E2E4 | E2C2F2A2 | E2E6 |
F2FAB2c2 | B2c2B2A2 | F2FAE2F2 | EFA6 |
B2c2B2c2 | F2A2A2z2 | A2FECEF2 | E2E6 |
A4A2B2 | F2E2E4 | E4E2F2 | A4F4 |
B2c2B2c2 | E2F2A4 | A2F2A2AB | F2E2E4

@@@ Tune index: 6415
